X:378551225165533
T:3-4-5-5-10-10-6-10-6-9-10-10-8-12-12-11
%%setfont-1 Courier-Bold 8
T:$1K.516f::32:95:113:85:75:129:36:123:25:88:19:82:43:124:44:78::$0
T:$1Perm. No.: 378551225165533$0
M:3/8
L:1/8
Q:1/8=111
%%staves [1 2]
V:1 clef=treble
V:2 clef=bass
K:C
%1
[V:1]|: Gce |\
[V:2]|: [E,2C,2]z |\
%2
[V:1] gec |\
[V:2] E,2 z & C,2 x |\
%3
[V:1] fdB |\
[V:2] [B,2G,2]z |\
%4
[V:1] ceG |\
[V:2] [G,2E,2]z |\
%5
[V:1] [^fd][fd][fd] |\
[V:2] C,C,C,   |\
%6
[V:1] a/g/^f/g/d |\
[V:2] [D,B,,][D,B,,][G,B,,] |\
%7
[V:1] A/e/d/g/^f/a/ \
[V:2] C,D,D,, \
%8a
[V:1]|1 [g2d2B2G2]z :|2
[V:2]|1 G,,G,/=F,/E,/D,/ :|2
%8b
[V:1] [g2d2B2G2]z |:\
[V:2] G,,B,/G,/^F,/E,/ |:\
%9
[V:1] D/^F/A/d/^f/a/ |\
[V:2] D,2C, |\
%10
[V:1] g/d/g/b/g/d/ |\
[V:2] [D,2B,,2][D,B,,] |\
%11
[V:1] e/c/eg |\
[V:2] [G,2C,2][E,C,] |\
%12
[V:1] d/B/Gg |\
[V:2] G,2 [D,B,,] & B,,2 x |\
%13
[V:1] gf/e/d/c/ |\
[V:2] [E,2C,2]z |\
%14
[V:1] [cE][cE][cE] |\
[V:2] C,C,C,   |\
%15
[V:1] Af/d/a/g/ |\
[V:2] F,2G, |\
%16
[V:1] cCz :|]
[V:2] C,2C,, :|]
